src/lib/packages/icons/src/assets/filled/bell-on.svg

<svg width="24" height="24" viewBox="0 0 24 24" fill="none" xmlns="http://www.w3.org/2000/svg">
<path d="M20.45 18.217C20.367 18.39 20.192 18.5 20 18.5H4.00001C3.80801 18.5 3.63299 18.39 3.54999 18.217C3.46699 18.044 3.48999 17.838 3.60999 17.688C3.62899 17.665 5.50602 15.282 5.50602 12.5V8.99499C5.50602 5.41399 8.42001 2.5 12.001 2.5C15.582 2.5 18.496 5.41399 18.496 8.99499V12.5C18.496 15.281 20.372 17.664 20.392 17.688C20.51 17.838 20.534 18.043 20.45 18.217ZM3.74601 8.07499C3.91701 6.36599 4.60702 4.78299 5.74302 3.49699C6.01702 3.18599 5.98701 2.712 5.67701 2.438C5.36601 2.163 4.89202 2.19299 4.61802 2.50399C3.27402 4.02699 2.456 5.90199 2.254 7.92599C2.212 8.33799 2.51299 8.70599 2.92499 8.74699C2.94999 8.74899 2.97601 8.751 3.00101 8.751C3.38101 8.75 3.70801 8.46099 3.74601 8.07499ZM21.075 8.746C21.487 8.705 21.788 8.337 21.746 7.925C21.544 5.902 20.726 4.027 19.382 2.503C19.109 2.193 18.634 2.16199 18.323 2.43699C18.012 2.71099 17.983 3.185 18.257 3.496C19.392 4.782 20.083 6.365 20.254 8.074C20.293 8.461 20.619 8.74899 20.999 8.74899C21.024 8.74999 21.049 8.749 21.075 8.746ZM14.164 19.751C14.075 19.596 13.91 19.5 13.73 19.5H10.27C10.091 19.5 9.926 19.596 9.836 19.751C9.746 19.906 9.74802 20.098 9.83802 20.252C10.294 21.033 11.102 21.5 12 21.5C12.898 21.5 13.706 21.033 14.162 20.252C14.252 20.098 14.253 19.906 14.164 19.751Z" fill="currentColor"/>
</svg>

<svg xmlns="http://www.w3.org/2000/svg" width="24" height="24" fill="none"><path fill="currentColor" d="M20.45 18.217a.499.499 0 0 1-.45.283H4a.499.499 0 0 1-.39-.812c.019-.023 1.896-2.406 1.896-5.188V8.995A6.503 6.503 0 0 1 12.001 2.5a6.503 6.503 0 0 1 6.495 6.495V12.5c0 2.781 1.876 5.164 1.896 5.188.118.15.142.355.058.529ZM3.746 8.075a8.09 8.09 0 0 1 1.997-4.578.751.751 0 0 0-1.125-.993 9.586 9.586 0 0 0-2.364 5.422.75.75 0 1 0 1.492.149Zm17.329.671a.75.75 0 0 0 .671-.821 9.591 9.591 0 0 0-2.364-5.422.75.75 0 1 0-1.125.993 8.096 8.096 0 0 1 1.997 4.578.75.75 0 0 0 .821.672Zm-6.911 11.005a.5.5 0 0 0-.434-.251h-3.46a.499.499 0 0 0-.432.752A2.483 2.483 0 0 0 12 21.5c.898 0 1.706-.467 2.162-1.248a.501.501 0 0 0 .002-.501Z"/></svg>
